X: 518
T: the Stool of Repentance
N: The title refers to the "dunking chair" that was used to punish
N: people in some parts of the British Isles and New England.
R: Jig
B: the Portland Collection v.1 p.191
Z: John Chambers <jc:trillian.mit.edu>
M: 6/8
L: 1/8
K: A
|:"A"a2e c2e | agf e2c | "D"aff f2e | fag "E7"f2e |
| "A"a2e c2e | agf e2c | "D"d2e f2e | fac "E7"B2z :|
|:"A"cAA eAA | cAA edc |"Bm"dBB fBB | dBB "E7"fed |
| "A"cAA eAA | agf e2c | "D"d2e f2e | fac "E7"B2z :|

%%newpage

